Sources/FrostedUI/Resources/Icons.xcassets/eye12.imageset/eye-12.svg

<svg width="12" height="12" viewBox="0 0 12 12" fill="none" xmlns="http://www.w3.org/2000/svg" data-fui-icon="true">
  <path
    d="M6.19922 1.00391C6.23997 1.00548 6.28093 1.00823 6.32129 1.01074C6.33745 1.01174 6.35403 1.01252 6.37012 1.01367C6.40502 1.0162 6.44001 1.02121 6.47461 1.02441C6.56989 1.03319 6.66423 1.04382 6.75684 1.05762C6.7638 1.05861 6.77137 1.0585 6.77832 1.05957C6.79702 1.06247 6.81584 1.06709 6.83398 1.07129C8.34117 1.31999 9.48918 2.21035 10.2861 3.10059C10.6918 3.55378 11.0189 4.02207 11.2734 4.43359C11.2842 4.44864 11.2949 4.46442 11.3047 4.48047C11.3168 4.50026 11.3281 4.52053 11.3398 4.54004C11.3851 4.61519 11.4277 4.68841 11.4678 4.75879C11.4938 4.80451 11.5191 4.84916 11.543 4.89258C11.5828 4.96511 11.6195 5.03451 11.6533 5.09961C11.6677 5.12735 11.682 5.1544 11.6953 5.18066C11.7907 5.36854 11.8592 5.51642 11.8994 5.6084L11.9004 5.61035L11.9365 5.70801C11.9508 5.75337 11.9604 5.7996 11.9678 5.8457C11.9866 5.96257 11.985 6.08286 11.96 6.20117C11.9464 6.26537 11.9257 6.3281 11.8994 6.38867L11.9004 6.38965C11.8604 6.48135 11.7912 6.62949 11.6953 6.81836C11.686 6.83672 11.6768 6.8559 11.667 6.875C11.6297 6.94727 11.5879 7.0246 11.543 7.10645C11.5196 7.1489 11.4951 7.19265 11.4697 7.2373C11.4323 7.30311 11.3925 7.37138 11.3506 7.44141C11.3353 7.46694 11.3206 7.49351 11.3047 7.51953C11.2976 7.53105 11.2888 7.54174 11.2812 7.55273C11.0256 7.96751 10.6962 8.44129 10.2861 8.89941C9.48918 9.78965 8.34117 10.68 6.83398 10.9287C6.81584 10.9329 6.79702 10.9375 6.77832 10.9404C6.77137 10.9415 6.7638 10.9414 6.75684 10.9424C6.66423 10.9562 6.56989 10.9668 6.47461 10.9756C6.44001 10.9788 6.40502 10.9838 6.37012 10.9863C6.35403 10.9875 6.33745 10.9883 6.32129 10.9893C6.21599 10.9958 6.10895 11 6.00098 11C5.8925 11 5.7845 10.9958 5.67871 10.9893C5.66255 10.9883 5.64597 10.9875 5.62988 10.9863C5.59498 10.9838 5.55999 10.9788 5.52539 10.9756C5.43011 10.9668 5.33576 10.9562 5.24316 10.9424C5.23652 10.9414 5.22929 10.9414 5.22266 10.9404C5.20362 10.9375 5.18448 10.933 5.16602 10.9287C3.65921 10.6799 2.51169 9.78947 1.71484 8.89941C1.30473 8.44129 0.975406 7.96753 0.719727 7.55273C0.712174 7.54173 0.703348 7.53104 0.696289 7.51953C0.680395 7.49351 0.665679 7.46694 0.650391 7.44141C0.608442 7.37138 0.568664 7.30312 0.53125 7.2373C0.505865 7.19265 0.481333 7.1489 0.458008 7.10645C0.413043 7.0246 0.371266 6.94727 0.333984 6.875C0.324135 6.85591 0.314983 6.83673 0.305664 6.81836C0.209812 6.62951 0.140623 6.48138 0.100586 6.38965C0.0238106 6.2137 0.00415989 6.02545 0.0332031 5.8457C0.0459938 5.76625 0.0671964 5.68687 0.100586 5.61035L0.101562 5.6084C0.141761 5.51638 0.210297 5.36851 0.305664 5.18066C0.319 5.1544 0.333244 5.12735 0.347656 5.09961C0.381478 5.03451 0.418151 4.96511 0.458008 4.89258C0.481868 4.84915 0.50719 4.80451 0.533203 4.75879C0.573257 4.6884 0.615903 4.61519 0.661133 4.54004C0.672869 4.52053 0.684201 4.50026 0.696289 4.48047C0.706102 4.46442 0.716748 4.44864 0.727539 4.43359C0.982083 4.02204 1.30914 3.55378 1.71484 3.10059C2.51169 2.21053 3.65921 1.3201 5.16602 1.07129C5.18448 1.06699 5.20362 1.0625 5.22266 1.05957C5.22929 1.0586 5.23652 1.05861 5.24316 1.05762C5.33576 1.04381 5.43011 1.0332 5.52539 1.02441C5.55999 1.02119 5.59498 1.01618 5.62988 1.01367C5.64597 1.01253 5.66255 1.01174 5.67871 1.01074C5.7845 1.00416 5.8925 1 6.00098 1L6.19922 1.00391ZM5.74316 2.50977C5.69789 2.51295 5.65281 2.51862 5.6084 2.52344C4.4612 2.64858 3.54022 3.30959 2.83203 4.10059C2.39698 4.58656 2.0653 5.09773 1.83496 5.50293C1.81078 5.54546 1.78753 5.58693 1.76562 5.62695C1.75169 5.65241 1.73861 5.67778 1.72559 5.70215C1.66534 5.81483 1.61584 5.91579 1.5752 6C1.60292 6.05743 1.63407 6.1231 1.6709 6.19434C1.69966 6.24997 1.73137 6.30947 1.76562 6.37207C1.78753 6.4121 1.81078 6.45356 1.83496 6.49609C2.06532 6.90141 2.39672 7.41314 2.83203 7.89941C3.5402 8.69039 4.46125 9.35041 5.6084 9.47559C5.65282 9.48041 5.69787 9.48607 5.74316 9.48926C5.82764 9.49525 5.9141 9.5 6.00098 9.5C6.08734 9.49997 6.17284 9.49519 6.25684 9.48926C6.30213 9.48607 6.34718 9.48039 6.3916 9.47559C7.53911 9.35056 8.46064 8.69061 9.16895 7.89941C9.60407 7.41331 9.93472 6.90131 10.165 6.49609C10.1892 6.45356 10.2125 6.4121 10.2344 6.37207C10.2687 6.30932 10.3013 6.25009 10.3301 6.19434C10.3668 6.12325 10.3971 6.05733 10.4248 6C10.3842 5.91588 10.3355 5.81466 10.2754 5.70215C10.2623 5.67766 10.2484 5.65255 10.2344 5.62695C10.2125 5.58693 10.1892 5.54546 10.165 5.50293C9.93474 5.09783 9.60381 4.5864 9.16895 4.10059C8.46062 3.30937 7.53916 2.64844 6.3916 2.52344C6.34719 2.51864 6.30211 2.51296 6.25684 2.50977C6.17286 2.50383 6.08732 2.50002 6.00098 2.5C5.91413 2.5 5.82762 2.50378 5.74316 2.50977ZM6 4C7.10457 4 8 4.89543 8 6C8 7.10457 7.10457 8 6 8C4.89547 7.99996 4 7.10454 4 6C4 4.89546 4.89547 4.00004 6 4Z"
    fill="currentColor"
  />
</svg>

<svg xmlns="http://www.w3.org/2000/svg" width="12" height="12" fill="none" data-fui-icon="true" viewBox="0 0 12 12"><path fill="currentColor" d="M6.2 1.004q.06.002.121.007l.05.003q.051.004.104.01.143.014.282.034.01 0 .021.002.029.004.056.011c1.507.249 2.655 1.14 3.452 2.03a9.5 9.5 0 0 1 1.019 1.38l.035.059a10 10 0 0 1 .313.56l.042.08c.096.189.164.336.204.428l.001.002.037.098a.971.971 0 0 1-.037.68v.002c-.04.091-.109.24-.205.428l-.028.057a11 11 0 0 1-.316.566l-.046.079-.024.033a9.5 9.5 0 0 1-.995 1.346c-.797.89-1.945 1.781-3.452 2.03l-.056.011q-.01.002-.021.002a5 5 0 0 1-.282.034q-.053.006-.105.01-.025.002-.049.003a5 5 0 0 1-.642 0l-.05-.003q-.051-.004-.104-.01a5 5 0 0 1-.282-.034q-.01 0-.02-.002-.03-.004-.057-.011c-1.507-.25-2.654-1.14-3.451-2.03A9.5 9.5 0 0 1 .72 7.553L.696 7.52.65 7.44a10 10 0 0 1-.316-.566l-.028-.057A9 9 0 0 1 .1 6.39a.97.97 0 0 1-.068-.544 1 1 0 0 1 .068-.236v-.002c.04-.092.11-.24.205-.427L.348 5.1a10 10 0 0 1 .313-.56l.035-.06.032-.046c.254-.412.581-.88.987-1.333.797-.89 1.944-1.78 3.451-2.03l.057-.011.02-.002q.14-.02.282-.034.053-.006.105-.01l.049-.003A5 5 0 0 1 6 1zM5.742 2.51q-.068.006-.135.013c-1.147.126-2.068.787-2.776 1.578a8.2 8.2 0 0 0-1.066 1.526l-.04.075q-.09.17-.15.298.04.087.095.194a9 9 0 0 0 .164.302c.23.405.562.917.997 1.403.708.791 1.63 1.451 2.776 1.577q.068.007.135.013.128.01.258.011.13-.001.256-.01l.135-.014C7.539 9.35 8.46 8.69 9.169 7.899a8.2 8.2 0 0 0 1.065-1.527q.053-.094.096-.178.054-.107.095-.194-.06-.127-.15-.298l-.04-.075-.07-.124A8.2 8.2 0 0 0 9.169 4.1c-.708-.792-1.63-1.453-2.777-1.578q-.068-.007-.135-.013a4 4 0 0 0-.514 0M6 4a2 2 0 1 1 0 4 2 2 0 0 1 0-4"/></svg>
